src/containers/site/SiteRobotsScreen/asset/robots_feature_2.svg

<svg width="73" height="73" viewBox="0 0 73 73" fill="none" xmlns="http://www.w3.org/2000/svg">
<path fill-rule="evenodd" clip-rule="evenodd" d="M24.3571 21.245C45.6667 -0.0714495 73 3.16869e-06 73 3.16869e-06C73 3.16869e-06 73.0476 27.3423 51.7143 48.6349C50.7381 49.6352 49.6905 50.4927 48.5714 51.2786C48.881 55.0656 48.7619 60.8294 45.8095 63.7827C38.9048 70.6897 27.381 73 27.381 73L29.5476 57.7807H24.3333L15.2143 48.6587V43.4189L0 45.5863C0 45.5863 2.30952 34.0587 9.21429 27.1517C12.1667 24.1984 17.9286 24.1031 21.7143 24.3889C22.5 23.2933 23.381 22.2215 24.3571 21.245ZM48.7143 18.1964C45.3333 18.1964 42.619 20.9354 42.619 24.2936C42.619 27.6757 45.3571 30.3909 48.7143 30.3909C52.0952 30.3909 54.8095 27.6519 54.8095 24.2936C54.8095 20.9116 52.0714 18.1964 48.7143 18.1964Z" fill="url(#paint0_linear)"/>
<path fill-rule="evenodd" clip-rule="evenodd" d="M2.76712 71.9303C2.8834 71.9535 3.58109 72 4.65088 72C8.06954 72 15.2557 71.4889 19.2325 67.4701C20.4186 66.2854 21.2791 64.7522 21.7209 63.0796L22 62.0575L10.93 51L9.90678 51.2788C8.20907 51.7201 6.69742 52.5796 5.51135 53.7644C0.413504 58.8565 0.994755 69.2877 1.04378 70.1674C1.04485 70.1867 1.04567 70.2013 1.04616 70.2113L1.16245 71.8142L2.76712 71.9303ZM8.18582 56.4126C8.6742 55.9015 9.2556 55.5066 9.90677 55.2279L17.8371 63.1493C17.5348 63.7998 17.1395 64.3805 16.6511 64.8684C13.651 67.865 7.67418 68.2832 4.76715 68.2832C4.76715 64.9381 5.39507 59.2002 8.18582 56.4126Z" fill="url(#paint1_linear)"/>
<defs>
<linearGradient id="paint0_linear" x1="0.0109048" y1="73.0031" x2="72.9933" y2="73.0031" gradientUnits="userSpaceOnUse">
<stop stop-color="#FFB300"/>
<stop offset="1" stop-color="#FF8E37"/>
</linearGradient>
<linearGradient id="paint1_linear" x1="1.02114" y1="72.0107" x2="22.021" y2="72.0107" gradientUnits="userSpaceOnUse">
<stop stop-color="#5C8BFC"/>
<stop offset="1" stop-color="#84B0FF"/>
</linearGradient>
</defs>
</svg>

<svg width="73" height="73" fill="none" xmlns="http://www.w3.org/2000/svg"><path fill-rule="evenodd" clip-rule="evenodd" d="M24.357 21.245C45.667-.071 73 0 73 0s.048 27.342-21.286 48.635c-.976 1-2.023 1.858-3.143 2.644.31 3.787.19 9.55-2.761 12.504C38.904 70.69 27.38 73 27.38 73l2.167-15.22h-5.215l-9.119-9.121v-5.24L0 45.586S2.31 34.06 9.214 27.152c2.953-2.954 8.715-3.049 12.5-2.763a25.325 25.325 0 012.643-3.144zm24.357-3.049a6.093 6.093 0 00-6.095 6.098 6.093 6.093 0 006.095 6.097 6.093 6.093 0 006.096-6.097 6.093 6.093 0 00-6.096-6.098z" fill="url(#paint0_linear)"/><path fill-rule="evenodd" clip-rule="evenodd" d="M2.767 71.93c.116.023.814.07 1.884.07 3.419 0 10.605-.511 14.582-4.53 1.186-1.185 2.046-2.718 2.488-4.39L22 62.057 10.93 51l-1.023.279a9.621 9.621 0 00-4.396 2.485C.414 58.856.995 69.288 1.044 70.167l.002.044.116 1.603 1.605.116zm5.419-15.517a5.181 5.181 0 011.72-1.185l7.931 7.921a5.967 5.967 0 01-1.186 1.72c-3 2.996-8.977 3.414-11.884 3.414 0-3.345.628-9.083 3.419-11.87z" fill="url(#paint1_linear)"/><defs><linearGradient id="paint0_linear" x1=".011" y1="73.003" x2="72.993" y2="73.003" gradientUnits="userSpaceOnUse"><stop stop-color="#FFB300"/><stop offset="1" stop-color="#FF8E37"/></linearGradient><linearGradient id="paint1_linear" x1="1.021" y1="72.011" x2="22.021" y2="72.011" gradientUnits="userSpaceOnUse"><stop stop-color="#5C8BFC"/><stop offset="1" stop-color="#84B0FF"/></linearGradient></defs></svg>
